(Block-name: Header)
(Block-expand: 0)
(Block-enable: 1)
(Exported by FreeCAD)
(Post Processor: PathScripts.linuxcnc_post)
(Output Time:2019-10-27 19:05:16.647812)
(begin preamble)
G17 G90
G21
(begin operation: Project)
(compound: Project)
(Path: Profile)
()
(Block-name: block)
(Block-expand: 0)
(Block-enable: 1)
G0 X-0.0010 Y0.0000
G1 X-0.0010 Y0.0000 Z2.0000 F0.00
G1 X-0.0010 Y10.0000 Z2.0000 F0.00
G2 X-0.0000 Y10.0010 Z2.0000 I0.0010 J0.0000 F0.00
G1 X10.0000 Y10.0010 Z2.0000 F0.00
G2 X10.0010 Y10.0000 Z2.0000 I0.0000 J-0.0010 F0.00
G1 X10.0010 Y0.0000 Z2.0000 F0.00
G2 X10.0000 Y-0.0010 Z2.0000 I-0.0010 J0.0000 F0.00
G1 X0.0000 Y-0.0010 Z2.0000 F0.00
G2 X-0.0010 Y-0.0000 Z2.0000 I0.0000 J0.0010 F0.00
G1 X-0.0010 Y0.0000 Z1.0000 F0.00
G1 X-0.0010 Y10.0000 Z1.0000 F0.00
G2 X-0.0000 Y10.0010 Z1.0000 I0.0010 J0.0000 F0.00
G1 X10.0000 Y10.0010 Z1.0000 F0.00
G2 X10.0010 Y10.0000 Z1.0000 I0.0000 J-0.0010 F0.00
G1 X10.0010 Y0.0000 Z1.0000 F0.00
G2 X10.0000 Y-0.0010 Z1.0000 I-0.0010 J0.0000 F0.00
G1 X0.0000 Y-0.0010 Z1.0000 F0.00
G2 X-0.0010 Y-0.0000 Z1.0000 I0.0000 J0.0010 F0.00
G1 X-0.0010 Y0.0000 Z0.0000 F0.00
G1 X-0.0010 Y10.0000 Z0.0000 F0.00
G2 X-0.0000 Y10.0010 Z0.0000 I0.0010 J0.0000 F0.00
G1 X10.0000 Y10.0010 Z0.0000 F0.00
G2 X10.0010 Y10.0000 Z0.0000 I0.0000 J-0.0010 F0.00
G1 X10.0010 Y0.0000 Z0.0000 F0.00
G2 X10.0000 Y-0.0010 Z0.0000 I-0.0010 J0.0000 F0.00
G1 X0.0000 Y-0.0010 Z0.0000 F0.00
G2 X-0.0010 Y-0.0000 Z0.0000 I0.0000 J0.0010 F0.00
G1 X-0.0010 Y0.0000 Z-1.0000 F0.00
G1 X-0.0010 Y10.0000 Z-1.0000 F0.00
G2 X-0.0000 Y10.0010 Z-1.0000 I0.0010 J0.0000 F0.00
G1 X10.0000 Y10.0010 Z-1.0000 F0.00
G2 X10.0010 Y10.0000 Z-1.0000 I0.0000 J-0.0010 F0.00
G1 X10.0010 Y0.0000 Z-1.0000 F0.00
G2 X10.0000 Y-0.0010 Z-1.0000 I-0.0010 J0.0000 F0.00
G1 X0.0000 Y-0.0010 Z-1.0000 F0.00
G2 X-0.0010 Y-0.0000 Z-1.0000 I0.0000 J0.0010 F0.00
G0 Z8.0000
(Block-name: block)
(Block-expand: 0)
(Block-enable: 1)
(finish operation: Project)
(begin postamble)
M05
G00 X-1.0 Y1.0
G17 G90
M2
